X: 28556
T: Murdo Took The Stoup
R: reel
M: 4/4
K: Amixolydian
|:cAAA AG d2|cAAA AccB|cAAA AG d2|edcA BG A2:|
|:A2 c2 Bc e2|A2 c2 B2 c2|A2 c2 Bc e2|G2 A2 GB A2:|

